X:5725
T:Gan ainm
R:Reel
S:
H:
N:Second half played once.
D:Nomos tape of dubious origin
Z:Adrian Scahill
M:4/4
L:1/8
K:G 
G2Bd gbag|egdB BAFA|GABd gbag|egdB BAFA|\
G2Bd gbag|edef g3a|b2 af gfed|1 (3efg dB BAFA:|2 (3efg dB Agfg||\
eAA2 eAfA|eAA2 egfg|eAA2 edef|gedB A2fA|\
eAA2 eAfA|eAA2 edBA|Bdgb a2gd|(3efg dB BAFA||
